data/icons/scalable/actions/contact-new-symbolic.svg

<?xml version="1.0" encoding="UTF-8"?>
<svg height="16px" viewBox="0 0 16 16" width="16px" xmlns="http://www.w3.org/2000/svg">
    <path d="m 8 1 c -1.65625 0 -3 1.34375 -3 3 s 1.34375 3 3 3 s 3 -1.34375 3 -3 s -1.34375 -3 -3 -3 z m -1.5 7 c -2.492188 0 -4.5 2.007812 -4.5 4.5 v 0.5 c 0 1.109375 0.890625 2 2 2 h 6 v -1 h -3 v -4 h 3 v -1.972656 c -0.164062 -0.019532 -0.332031 -0.027344 -0.5 -0.027344 z m 4.5 0 v 3 h -3 v 2 h 3 v 3 h 2 v -3 h 3 v -2 h -3 v -3 z m 0 0" fill="#2e3436"/>
</svg>

<svg xmlns="http://www.w3.org/2000/svg" width="16" height="16" viewBox="0 0 16 16"><path fill="#2e3436" d="M8 1a3 3 0 1 0 .002 6.002A3 3 0 0 0 8 1M6.5 8A4.49 4.49 0 0 0 2 12.5v.5c0 1.11.89 2 2 2h6v-1H7v-4h3V8.027A4 4 0 0 0 9.5 8zM11 8v3H8v2h3v3h2v-3h3v-2h-3V8zm0 0"/></svg>
